frontend/public/images/quotes/hayek.svg

<svg width="667" height="800" viewBox="0 0 667 800" fill="none" xmlns="http://www.w3.org/2000/svg">
<path d="M513.714 730.146C513.714 730.146 521.5 683 512.5 648C511.042 642.332 504.2 637.224 499.489 635.564C497.595 634.895 495.634 634.115 494.056 632.924C492.502 631.752 491.488 629.892 490.062 628.519C488.135 626.659 487.245 624.444 486.714 621.852C485.959 618.164 484.763 614.615 481.032 612.654C476.197 610.115 471.51 607.264 466.559 604.978C461.805 602.787 456.86 600.941 451.876 599.324C446.902 597.717 442.597 595.508 439.488 591.045C437.503 588.2 434.744 585.904 432.567 583.173C430.458 580.533 428.344 577.811 426.756 574.846C422.667 567.217 419.352 559.201 414.259 552.079C412.542 549.678 411.714 546.44 411.135 543.456C409.61 535.569 407.395 527.95 402.871 521.263C399.719 516.605 396.16 512.214 392.635 507.823C391.837 506.829 390.526 506.049 389.297 505.633C384.667 504.069 383.677 502.428 384.619 497.674C385.715 492.16 386.599 486.549 383.294 481.479C380.831 477.706 378.162 474.009 375.159 470.661C373.126 468.398 371.868 466.189 372.456 463.195C373.968 455.532 370.873 450.137 364.464 446.144C360.523 443.685 357.773 440.581 358.304 435.248C358.6 432.259 358.093 428.973 357.094 426.122C355.31 421.038 352.837 416.203 350.723 411.229C347.715 404.15 343.735 397.937 337.034 393.656C331.673 390.232 326.483 386.573 320.194 384.999C317.659 384.363 314.914 384.153 312.627 383.014C307.864 380.652 303.2 378.021 298.757 375.104C292.492 370.99 286.341 366.633 279.21 364.223C271.734 361.692 264.966 357.986 258.519 353.566C255.266 351.338 252.909 348.458 251.684 344.661C250.756 341.781 249.675 338.955 248.733 336.085C247.891 333.517 246.098 332.02 243.544 331.513C238.966 330.599 235.279 328.518 233.882 323.817C233.509 322.564 233.82 320.761 234.499 319.608C236.709 315.863 239.215 312.29 241.654 308.684C242.262 307.78 242.879 306.709 243.768 306.197C253.219 300.778 260.901 293.283 267.707 284.999C275.178 275.897 280.291 265.346 284.131 254.221C286.872 246.272 289.478 238.275 292.147 230.302C295.414 220.56 297.848 210.692 298.016 200.295C298.073 196.698 298.241 192.451 302.78 190.767C302.818 190.753 302.813 190.624 302.837 190.533C300.579 188.562 299.565 185.989 299.546 183.062C299.494 176.471 299.766 169.919 301.311 163.443C302.665 157.765 302.502 151.983 302.282 146.152C302.043 139.7 302.076 133.267 299.699 127.16C298.164 123.209 296.734 119.144 294.572 115.537C292.386 111.883 290.449 108.473 291.741 104.049C291.879 103.575 291.253 102.877 291.014 102.346C291.406 101.657 292.047 101.007 292.128 100.294C292.616 96.1571 293.381 92.1156 292.482 87.8206C291.363 82.4733 289.818 77.8865 284.997 74.4907C280.267 71.1618 275.546 68.1104 269.931 66.5751C269.314 66.4077 268.616 66.0681 268.238 65.585C264.268 60.5199 259.136 57.3202 252.727 56.9711C250.651 56.8563 248.154 58.095 246.433 59.4486C244.252 61.1656 241.654 61.2087 240.043 58.7981C239.627 58.1763 238.981 57.5498 238.302 57.3011C236.446 56.6267 234.509 56.1771 232.615 55.5984C227.87 54.1396 223.164 52.5421 218.381 51.2316C216.181 50.629 213.856 48.8497 211.513 51.1264C211.274 51.3608 210.609 51.1168 210.154 51.1838C208.48 51.4277 206.74 51.4947 205.156 52.0208C202.54 52.8961 200.015 54.0583 197.47 55.1344C195.725 55.8758 193.921 56.5358 192.295 57.4828C189.368 59.1903 186.594 61.1561 183.677 62.8779C181.849 63.9541 179.908 64.8532 177.956 65.6902C175.742 66.6372 173.436 67.3738 171.212 68.3065C169.978 68.823 168.778 69.3922 168.859 71.2001C168.883 71.6832 167.745 72.6397 167.113 72.6684C163.182 72.8454 161.867 76.2317 160.135 78.6805C159.021 80.2541 158.093 81.6746 156.419 82.7125C154.539 83.8747 152.856 85.3622 151.086 86.7062C150.584 87.084 150.11 87.5049 149.575 87.8301C146.045 89.9776 142.582 92.2543 138.938 94.1866C136.207 95.6358 135.116 98.4529 133.012 100.39C132.926 100.471 132.964 100.686 132.945 100.816C133.566 101.055 134.183 101.284 134.839 101.538C134.179 103.556 133.715 105.412 132.964 107.148C132.151 109.018 130.673 109.855 128.535 109.315C126.158 108.717 124.809 110.424 122.752 111.692C124.479 112.084 125.617 112.342 127.133 112.687C124.613 116.14 120.983 118.211 119.438 122.152C118.778 123.836 118.032 125.29 117.946 127.193C117.745 131.431 119.945 135.582 118.333 139.858C118.242 140.097 118.73 140.628 119.041 140.925C119.878 141.704 121.011 142.278 121.585 143.206C122.537 144.751 123.436 145.87 125.512 145.392C125.981 145.282 126.646 146.009 127.22 146.353C126.803 146.951 126.507 147.726 125.947 148.104C125.254 148.568 124.34 148.697 123.537 148.965C124.383 154.527 124.225 156.139 122.403 162.012C122.284 162.395 122.422 162.921 122.594 163.313C123.561 165.466 123.264 166.073 120.916 166.786C118.94 167.384 116.908 167.876 115.033 168.708C112.775 169.713 111.264 171.349 110.805 174.041C109.532 181.445 109.939 188.763 111.211 196.114C112.177 201.705 112.967 207.383 116.09 212.228C118.572 216.083 121.714 219.507 124.374 223.252C126.909 226.825 130.089 229.13 134.504 229.709C135.173 229.795 136.163 230.632 136.259 231.24C136.527 232.938 136.666 234.746 136.384 236.429C135.7 240.485 134.604 244.474 133.939 248.53C133.27 252.624 130.701 255.795 127.306 256.752C123.039 257.957 120.557 260.516 118.582 263.864C114.827 270.234 110.207 275.821 104.53 280.532C102.698 282.048 100.703 283.368 98.7949 284.798C94.2034 288.232 90.4345 292.637 84.6042 294.527C68.352 299.802 52.3198 305.766 36.0341 310.932C24.8996 314.462 13.5546 317.288 2.77399 321.909C0.693439 322.798 -0.00012207 323.855 -0.00012207 326.122C0.0572724 483.058 0.0524902 639.988 0.0524902 796.924V799.932H3.10883C153.147 799.932 303.186 799.932 453.225 799.932C453.942 799.932 454.731 800.114 455.353 799.87C455.937 799.641 456.812 798.909 456.764 798.488C456.357 794.987 458.261 792.022 458.821 788.779C459.395 785.459 460.533 782.7 462.996 780.289C467.167 776.205 470.567 771.355 475.805 768.346C477.589 767.323 478.875 765.429 480.511 763.807C481.324 763.597 482.558 763.353 483.735 762.942C484.548 762.66 485.251 762.057 486.059 761.746C492.779 759.168 492.951 756.25 492.162 751.037C491.665 747.732 493.181 746.594 495.343 745.365C499.37 743.078 503.98 741.696 507.209 738.171C509.533 735.636 513.723 730.15 513.723 730.15L513.714 730.146Z" fill="#808080" fill-opacity="0.08"/>
</svg>

<svg xmlns="http://www.w3.org/2000/svg" width="667" height="800" fill="none"><path fill="gray" fill-opacity=".08" d="M513.714 730.146S521.5 683 512.5 648c-1.458-5.668-8.3-10.776-13.011-12.436-1.894-.669-3.855-1.449-5.433-2.64-1.554-1.172-2.568-3.032-3.994-4.405-1.927-1.86-2.817-4.075-3.348-6.667-.755-3.688-1.951-7.237-5.682-9.198-4.835-2.539-9.522-5.39-14.473-7.676-4.754-2.191-9.699-4.037-14.683-5.654-4.974-1.607-9.279-3.816-12.388-8.279-1.985-2.845-4.744-5.141-6.921-7.872-2.109-2.64-4.223-5.362-5.811-8.327-4.089-7.629-7.404-15.645-12.497-22.767-1.717-2.401-2.545-5.639-3.124-8.623-1.525-7.887-3.74-15.506-8.264-22.193-3.152-4.658-6.711-9.049-10.236-13.44-.798-.994-2.109-1.774-3.338-2.19-4.63-1.564-5.62-3.205-4.678-7.959 1.096-5.514 1.98-11.125-1.325-16.195-2.463-3.773-5.132-7.47-8.135-10.818-2.033-2.263-3.291-4.472-2.703-7.466 1.512-7.663-1.583-13.058-7.992-17.051-3.941-2.459-6.691-5.563-6.16-10.896.296-2.989-.211-6.275-1.21-9.126-1.784-5.084-4.257-9.919-6.371-14.893-3.008-7.079-6.988-13.292-13.689-17.573-5.361-3.424-10.551-7.083-16.84-8.657-2.535-.636-5.28-.846-7.567-1.985-4.763-2.362-9.427-4.993-13.87-7.91-6.265-4.114-12.416-8.471-19.547-10.881-7.476-2.531-14.244-6.237-20.691-10.657-3.253-2.228-5.61-5.108-6.835-8.905-.928-2.88-2.009-5.706-2.951-8.576-.842-2.568-2.635-4.065-5.189-4.572-4.578-.914-8.265-2.995-9.662-7.696-.373-1.253-.062-3.056.617-4.209 2.21-3.745 4.716-7.318 7.155-10.924.608-.904 1.225-1.975 2.114-2.487 9.451-5.419 17.133-12.914 23.939-21.198 7.471-9.102 12.584-19.653 16.424-30.778 2.741-7.949 5.347-15.946 8.016-23.919 3.267-9.742 5.701-19.61 5.869-30.007.057-3.597.225-7.844 4.764-9.528.038-.014.033-.143.057-.234-2.258-1.971-3.272-4.544-3.291-7.471-.052-6.591.22-13.143 1.765-19.619 1.354-5.678 1.191-11.46.971-17.291-.239-6.452-.206-12.885-2.583-18.992-1.535-3.951-2.965-8.016-5.127-11.623-2.186-3.654-4.123-7.064-2.831-11.488.138-.474-.488-1.172-.727-1.703.392-.689 1.033-1.339 1.114-2.052.488-4.137 1.253-8.178.354-12.473-1.119-5.348-2.664-9.934-7.485-13.33-4.73-3.33-9.451-6.38-15.066-7.916-.617-.167-1.315-.507-1.693-.99-3.97-5.065-9.102-8.265-15.511-8.614-2.076-.115-4.573 1.124-6.294 2.478-2.181 1.717-4.779 1.76-6.39-.65-.416-.623-1.062-1.25-1.741-1.498-1.856-.674-3.793-1.124-5.687-1.703-4.745-1.458-9.451-3.056-14.234-4.366-2.2-.603-4.525-2.382-6.868-.106-.239.235-.904-.01-1.359.058-1.674.244-3.414.31-4.998.837-2.616.875-5.141 2.037-7.686 3.113-1.745.742-3.549 1.402-5.175 2.349-2.927 1.707-5.701 3.673-8.618 5.395-1.828 1.076-3.769 1.975-5.721 2.812-2.214.947-4.52 1.684-6.744 2.617-1.234.516-2.434 1.085-2.353 2.893.024.483-1.114 1.44-1.746 1.468-3.931.177-5.246 3.564-6.978 6.012-1.114 1.574-2.042 2.995-3.716 4.032-1.88 1.163-3.563 2.65-5.333 3.994-.502.378-.976.799-1.511 1.124-3.53 2.148-6.993 4.424-10.637 6.357-2.731 1.449-3.822 4.266-5.926 6.203-.086.081-.048.296-.067.426.621.239 1.238.468 1.894.722-.66 2.018-1.124 3.874-1.875 5.61-.813 1.87-2.291 2.707-4.429 2.167-2.377-.598-3.726 1.109-5.783 2.377l4.381.995c-2.52 3.453-6.15 5.524-7.695 9.465-.66 1.684-1.406 3.138-1.492 5.041-.201 4.238 1.999 8.389.387 12.665-.091.239.397.77.708 1.067.837.779 1.97 1.353 2.544 2.281.952 1.545 1.851 2.664 3.927 2.186.469-.11 1.134.617 1.708.961-.417.598-.713 1.373-1.273 1.751-.693.464-1.607.593-2.41.861.846 5.562.688 7.174-1.134 13.047-.119.383.019.909.191 1.301.967 2.153.67 2.76-1.678 3.473-1.976.598-4.008 1.09-5.883 1.922-2.258 1.005-3.769 2.641-4.228 5.333-1.273 7.404-.866 14.722.406 22.073.966 5.591 1.756 11.269 4.879 16.114 2.482 3.855 5.624 7.279 8.284 11.024 2.535 3.573 5.715 5.878 10.13 6.457.669.086 1.659.923 1.755 1.531.268 1.698.407 3.506.125 5.189-.684 4.056-1.78 8.045-2.445 12.101-.669 4.094-3.238 7.265-6.633 8.222-4.267 1.205-6.749 3.764-8.724 7.112-3.755 6.37-8.375 11.957-14.052 16.668-1.832 1.516-3.827 2.836-5.735 4.266-4.592 3.434-8.36 7.839-14.19 9.729-16.253 5.275-32.285 11.239-48.57 16.405-11.135 3.53-22.48 6.356-33.261 10.977-2.08.889-2.774 1.946-2.774 4.213.057 156.936.052 313.866.052 470.802v3.008h453.173c.717 0 1.506.182 2.128-.062.584-.229 1.459-.961 1.411-1.382-.407-3.501 1.497-6.466 2.057-9.709.574-3.32 1.712-6.079 4.175-8.49 4.171-4.084 7.571-8.934 12.809-11.943 1.784-1.023 3.07-2.917 4.706-4.539.813-.21 2.047-.454 3.224-.865.813-.282 1.516-.885 2.324-1.196 6.72-2.578 6.892-5.496 6.103-10.709-.497-3.305 1.019-4.443 3.181-5.672 4.027-2.287 8.637-3.669 11.866-7.194 2.324-2.535 6.514-8.021 6.514-8.021l-.009-.004Z"/></svg>
